X: 5
T: No_14_Song_of_the_Weasel_Society.krn
N: Derived from No_14_Song_of_the_Weasel_Society.krn
%%abc-version 2.0
%%abcx-abcm2ps-target-version 5.9.1 (29 Sep 2008)
%%abc-creator hum2abc beta
%%abcx-conversion-date 2019/03/15 08:27:55
%%humdrum-veritas 3546786202
%%humdrum-veritas-data 1157493660
%%linebreak <none>
%%barnumbers 0
L: 1/16
M: 5/8
%%staves {1 2}
V: 1 clef=bass
V: 2 clef=bass
K: G
[V:1] [K:clef=bass][M:5/8]E4F3EEB,/B,/ | 
[V:2] [K:clef=bass][M:5/8](3:2:1z15 | 
[V:1] [M:3/4]E8(3:2:4B,2A, z E2 | 
[V:2] [M:3/4]G,,4G,,4G,,4 | 
[V:1] [M:2/4]B,4A,3A, | 
[V:2] [M:2/4]G,,4G,,4 | 
[V:1] [M:3/8]A,4G,E, | 
[V:2] [M:3/8]z6 | 
[V:1] [M:2/4]G,2E,E, E,2E, z | 
[V:2] [M:2/4]z8 | 
[V:1] [M:5/8]G,4A,3G,G,E, | 
[V:2] [M:5/8](3:2:1z15 | 
[V:1] [M:3/4]G,2E,E,E,4E,2D,2 | 
[V:2] [M:3/4]z12 | 
[V:1] E,8-E,2E,2 | 
[V:2] z12 | 
[V:1] E,8z4 | 
[V:2] z12 | 
[V:1] B,4E3E (3:2:4B,2A, z E2 | 
[V:2] z12 | 
[V:1] [M:3/8]B,4A,G, | 
[V:2] [M:3/8]z6 | 
[V:1] [M:2/4]A,6G,E, | 
[V:2] [M:2/4]z8 | 
[V:1] [M:5/8](G,3E,)E,4z2 | 
[V:2] [M:5/8](3:2:1z15 | 
[V:1] G,4A,3G,G,E, | 
[V:2] (3:2:1z15 | 
[V:1] [M:3/4]G,2E,E,E,4E,2D,2 | 
[V:2] [M:3/4]z12 | 
[V:1] E,8-E,2E,2 | 
[V:2] z12 | 
[V:1] E,8z4 |]  
[V:2] z12 |]  



% FRACTION = 0.499634BUT SHOULD BE 0
